X:1
T:Title
%%score { 1 | ( 2 3 ) }
L:1/8
M:4/4
K:Bb
V:1 treble nm="Grand Piano"
V:2 bass 
V:3 bass 
V:1
 z4 z2[Q:1/4=100] [B,D]>[CE] | [DF]>[_D=E] [=DF]>[_EG] [DF]>[CE] [B,D]>[DF] | %2
 [DB]2 [EB]2 [DB]2 [FB]>[FA] | G>^F G>[EA] [DB]2 G2 | c6 D>[CE] | %5
 [DF]>[_D=E] [=DF]>[_EG] [DF]>[CE] [B,D]>[DF] | [DB]2 [EB]2 [DB]2 B>G | F>F G>A [DB]2 [Fd]2 | %8
[M:5/4] [Fc]4 [DFB]6 |[M:4/4] A>_A =A>B c4 | [DB]>[CA] [DB]>[Ec] [Fd]4 | G>^F G>A B>B A>G | %12
 [^Fd]2 [Fd]4 [Gd]>[Ge] | d>c c>=B c2 c>d | [Ec]>[DB] [DB]>[DA] [DB]2 B>G | F>F G>A [DB]2 [Fd]2 | %16
[M:5/4] [Fc]4 [DFB]6 |] %17
V:2
 z4 z2 [B,,F,]>[B,,F,] | [B,,B,]>[B,,B,] [B,,B,]>[B,,B,] [B,,B,]>[B,,F,] [B,,F,]>[B,,B,] | %2
 [B,,F,]2 [E,G,]2 [B,,F,]2 [D,B,]>[D,B,] | [E,B,E]>[E,A,E] [E,B,E]>[C,F,] [B,,F,]2 [G,B,D]2 | %4
 [F,A,E]6 [B,,F,B,]>[B,,F,] | [B,,B,]>[B,,B,] [B,,B,]>[B,,B,] [B,,B,]>[B,,F,] [B,,F,]>[B,,B,] | %6
 [B,,F,]2 [E,G,]2 [B,,F,]2 [E,G,E]>[E,B,E] | [F,B,D]>[F,B,D] [F,A,E]>[F,CE] [B,,B,]2 [B,,B,]2 | %8
[M:5/4] A,2 z2 z2 z4 |[M:4/4] [F,CE]>[F,=B,E] [F,CE]>[F,_B,E] [F,A,E]4 | %10
 [B,,B,]>[B,,B,] [B,,F,]>[B,,F,] [B,,B,]4 | %11
 [G,B,D]>[G,A,D] [G,B,D]>[G,CD] [G,DG]>[G,DG] [G,CG]>[K:bass][G,B,] | %12
 [D,A,]2 [D,A,]4 [G,B,]>[E,B,] | [F,B,F]>[F,A,E] [F,A,E]>[F,_A,D] [F,=A,E]2 [F,A,E]>[F,A,F] | %14
 [B,,B,]>[B,,F,] [B,,F,]>[B,,F,] [B,,F,]2 [E,G,E]>[E,B,E] | %15
 [F,B,D]>[F,B,D] [F,A,E]>[F,CE] [B,,B,]2 [B,,B,]2 |[M:5/4] A,2 z2 z2 z4 |] %17
V:3
 x8 | x8 | x8 | x8 | x8 | x8 | x8 | x8 |[M:5/4] F,2- [F,E]2 B,,6 |[M:4/4] x8 | x8 | %11
 x15/2[K:bass] x/ | x8 | x8 | x8 | x8 |[M:5/4] F,2- [F,E]2 B,,6 |] %17

